(driver-1002)
(Machine)
(  vendor: Autodesk)
(  model: Generic 3-axis)
(  description: This machine has XYZ axis on the Head)
(T2  D=3.175 CR=0 - ZMIN=-1.27 - flat end mill)
G90 G94
G17
G21
G28 G91 Z0
G90

(2D Contour2 2)
S5000 M3
G54
M8
G0 X63.538 Y25.083
Z15
Z3
G1 Z1 F333.3
Z-0.953
G18 G2 X63.856 Z-1.27 I0.317 K0 F1000
G1 X64.173
G17 G3 X64.491 Y25.4 I0 J0.317
X62.509 Y25.4 I-0.991 J0
X64.491 Y25.4 I0.991 J0
X64.173 Y25.718 I-0.317 J0
G1 X63.856
G18 G3 X63.538 Z-0.953 I0 K0.317
G0 Z5
X88.938 Y25.083
Z3
G1 Z1 F333.3
Z-0.953
G2 X89.256 Z-1.27 I0.317 K0 F1000
G1 X89.573
G17 G3 X89.891 Y25.4 I0 J0.317
X87.909 Y25.4 I-0.991 J0
X89.891 Y25.4 I0.991 J0
X89.573 Y25.718 I-0.318 J0
G1 X89.256
G18 G3 X88.938 Z-0.953 I0 K0.317
G0 Z5
X139.738 Y25.083
Z3
G1 Z1 F333.3
Z-0.953
G2 X140.055 Z-1.27 I0.317 K0 F1000
G1 X140.373
G17 G3 X140.691 Y25.4 I0 J0.317
X138.709 Y25.4 I-0.991 J0
X140.691 Y25.4 I0.991 J0
X140.373 Y25.718 I-0.318 J0
G1 X140.055
G18 G3 X139.738 Z-0.953 I0 K0.317
G0 Z5
X12.738 Y25.083
Z3
G1 Z1 F333.3
Z-0.953
G2 X13.056 Z-1.27 I0.318 K0 F1000
G1 X13.373
G17 G3 X13.691 Y25.4 I0 J0.317
X11.709 Y25.4 I-0.991 J0
X13.691 Y25.4 I0.991 J0
X13.373 Y25.718 I-0.318 J0
G1 X13.056
G18 G3 X12.738 Z-0.953 I0 K0.317
G0 Z15
G17
M9
G28 G91 Z0
G90
G28 G91 X0 Y0
G90
M5
M30
