(driver-1001)
(Machine)
(  vendor: Autodesk)
(  model: Generic 3-axis)
(  description: This machine has XYZ axis on the Head)
(T1  D=6.34 CR=0 - ZMIN=-1.27 - flat end mill)
G90 G94
G17
G21
G28 G91 Z0
G90

(2D Contour2)
S13000 M3
G54
G0 X118.753 Y24.766
Z15
Z3
G1 Z1 F100
Z-0.636
G18 G2 X119.387 Z-1.27 I0.634 K0 F1200
G1 X120.021
G17 G3 X120.655 Y25.4 I0 J0.634
X107.945 Y25.4 I-6.355 J0
X120.655 Y25.4 I6.355 J0
X120.021 Y26.034 I-0.634 J0
G1 X119.387
G18 G3 X118.753 Z-0.636 I0 K0.634
G0 Z5
X42.567 Y24.875
Z3
G1 Z1 F100
Z-0.636
X42.575 Y24.876 Z-0.735 F1200
X42.598 Z-0.832
X42.636 Y24.877 Z-0.924
X42.688 Y24.878 Z-1.009
X42.753 Y24.88 Z-1.084
X42.828 Y24.882 Z-1.149
X42.913 Y24.884 Z-1.201
X43.005 Y24.886 Z-1.239
X43.102 Y24.889 Z-1.262
X43.201 Y24.891 Z-1.27
X43.835 Y24.907
G17 G3 X44.453 Y25.556 I-0.016 J0.634
X31.747 Y25.244 I-6.353 J-0.156
X44.453 Y25.556 I6.353 J0.156
X43.804 Y26.174 I-0.634 J-0.016
G1 X43.17 Y26.159
X43.071 Y26.156 Z-1.262
X42.974 Y26.154 Z-1.239
X42.882 Y26.152 Z-1.201
X42.797 Y26.15 Z-1.149
X42.722 Y26.148 Z-1.084
X42.657 Y26.146 Z-1.009
X42.605 Y26.145 Z-0.924
X42.567 Y26.144 Z-0.832
X42.544 Y26.143 Z-0.735
X42.536 Z-0.636
G0 Z15
G28 G91 Z0
G90
G28 G91 X0 Y0
G90
M5
M30
